img/Logo.svg

<svg width="91" height="32" viewBox="0 0 91 32" fill="none" xmlns="http://www.w3.org/2000/svg">
<path fill-rule="evenodd" clip-rule="evenodd" d="M39.5113 0.918836C38.2772 2.1019 38.2772 4.12974 39.5113 5.35423C40.7454 6.57935 42.7882 6.57935 44.0223 5.35423C45.2558 4.12974 45.2558 2.1019 44.0223 0.918836C42.7882 -0.306279 40.7454 -0.306279 39.5113 0.918836ZM64.3065 9.2083L61.4128 9.67274C55.8926 10.9214 52.3061 12.7105 52.3061 18.7254V30.7947L57.3279 31.8083V19.4792C57.3279 16.6684 58.9265 15.3988 61.4128 14.9294L64.3065 14.4031V9.2083ZM26.0854 30.8442L31.1073 31.8578V18.2133C31.1073 11.6653 26.0007 9.29983 22.4684 9.29983C20.0855 9.29983 18.2135 9.89105 16.5109 11.5386C14.7665 9.89105 12.6814 9.25778 10.9788 9.25778C8.55352 9.25778 6.42542 10.3134 5.02122 12.0036V9.72222L0 10.6938V30.8442L5.02122 31.8578V18.0018C5.02122 15.8051 6.63848 14.2423 9.06437 14.2423C11.4473 14.2423 13.0645 15.8051 13.0645 18.0018V30.8442L18.0857 31.8578V18.0018C18.0857 15.8051 19.7024 14.2423 22.0859 14.2423C24.4688 14.2423 26.0854 15.8051 26.0854 18.0018V30.8442ZM91 20.6079C91 26.8905 85.8529 32 79.5664 32C73.2376 32 68.0905 26.8905 68.0905 20.6079C68.0905 14.3673 73.2376 9.25778 79.5664 9.25778C85.8529 9.25778 91 14.3673 91 20.6079ZM79.5664 27.2671C75.8958 27.2671 72.8999 24.2937 72.8999 20.6079C72.8999 16.9641 75.8958 14.0321 79.5664 14.0321C83.237 14.0321 86.19 16.9641 86.19 20.6079C86.19 24.2937 83.237 27.2671 79.5664 27.2671ZM44.2347 32L39.2135 30.8442V10.5503L44.2347 9.53669V32Z" fill="black"/>
</svg>

<svg width="91" height="32" fill="none" xmlns="http://www.w3.org/2000/svg"><path fill-rule="evenodd" clip-rule="evenodd" d="M39.511.919c-1.234 1.183-1.234 3.21 0 4.435 1.234 1.225 3.277 1.225 4.511 0 1.234-1.224 1.234-3.252 0-4.435-1.234-1.225-3.277-1.225-4.51 0zm24.795 8.29-2.893.464c-5.52 1.248-9.107 3.037-9.107 9.052v12.07l5.022 1.013V19.48c0-2.81 1.598-4.08 4.085-4.55l2.894-.526V9.208zm-38.22 21.635 5.021 1.014V18.213c0-6.548-5.106-8.913-8.639-8.913-2.383 0-4.255.591-5.957 2.239-1.744-1.648-3.83-2.281-5.532-2.281-2.425 0-4.554 1.055-5.958 2.746V9.722L0 10.694v20.15l5.021 1.014V18.002c0-2.197 1.617-3.76 4.043-3.76 2.383 0 4 1.563 4 3.76v12.842l5.022 1.014V18.002c0-2.197 1.616-3.76 4-3.76 2.383 0 4 1.563 4 3.76v12.842zM91 20.608C91 26.89 85.853 32 79.566 32c-6.328 0-11.475-5.11-11.475-11.392 0-6.24 5.147-11.35 11.475-11.35 6.287 0 11.434 5.11 11.434 11.35zm-11.434 6.66c-3.67 0-6.666-2.974-6.666-6.66 0-3.644 2.996-6.576 6.666-6.576 3.671 0 6.624 2.932 6.624 6.576 0 3.686-2.953 6.66-6.624 6.66zM44.235 32l-5.021-1.156V10.55l5.02-1.013V32z" fill="#000"/></svg>
